X:3
T:Broken Chair, The
M:C|
R:Reel
L:1/8
C:Brad Maloney
R:Reel
O:USA
A:New England
N:Written in memory of the Empty Pockets Recording Flea/dh
Z:B Maloney
K:Em
D||~E2BE cEBE | AGFG AGFD | ~E2BE cEBE | AGFE [B,4E4] :|
|:{f}~g3a bgaf | Acac gcfc | f~g2 a bgaf |1 gfed egfe :|2 gfed [B4e4]|]
